X: 31876
T: Pay The Reckoning
R: jig
M: 6/8
K: Gmajor
|:G2e dBG|~B3 dBA|G2e dBG|~A3 BGE|
G2e dBG|~B3 def|gfe dBG|~A3 BGE:|
|:g3 ~f3|ege def|~g3 efg|~a3 bge|
g3 ~f3|ege def|gfe dBG|~A3 BGE:|

